svg/hourglass.svg

<svg xmlns="http://www.w3.org/2000/svg" viewBox="0 0 38 64" enable-background="new 0 0 38 64"><style type="text/css">.st0{fill:#343434;}</style><title>hourglass</title><desc>Created with Sketch.</desc><path class="st0" d="M9.3 33.3zM30.2 29.4c3-2.9 4.8-7 4.8-11.4v-12c1.6 0 3-1.3 3-3v-3h-38v3c0 1.7 1.3 3 3 3v12c0 4.5 1.8 8.5 4.8 11.4 1.8 1.7 1.5 1.3 1.5 1.3.6.5 1.3.9 1.9 1.3-.7.4-1.3.8-1.9 1.2-.2.2-.6.6-1.5 1.3-3 3-4.8 7-4.8 11.5v12c-1.6 0-3 1.3-3 3v3h38v-3c0-1.7-1.3-3-3-3v-12c0-4.5-1.8-8.5-4.8-11.4-2.1-1.9-1.5-1.3-1.5-1.3-.6-.5-1.3-.9-1.9-1.3.7-.4 1.3-.8 1.9-1.3 0 0-.5.5 1.5-1.3zm.8 16.6v12h-24v-12c0-4.4 2.4-8.4 6.2-10.5l5.8-3.2 5.8 3.2c3.8 2.1 6.2 6.1 6.2 10.5zm-6.2-17.5l-5.8 3.2-5.8-3.2c-3.8-2.1-6.2-6.1-6.2-10.5v-12h24v12c0 4.4-2.4 8.4-6.2 10.5z"/></svg>

<svg xmlns="http://www.w3.org/2000/svg" viewBox="0 0 38 64"><path d="M9.3 33.3zm20.9-3.9c3-2.9 4.8-7 4.8-11.4V6c1.6 0 3-1.3 3-3V0H0v3c0 1.7 1.3 3 3 3v12c0 4.5 1.8 8.5 4.8 11.4 1.8 1.7 1.5 1.3 1.5 1.3.6.5 1.3.9 1.9 1.3-.7.4-1.3.8-1.9 1.2-.2.2-.6.6-1.5 1.3-3 3-4.8 7-4.8 11.5v12c-1.6 0-3 1.3-3 3v3h38v-3c0-1.7-1.3-3-3-3V46c0-4.5-1.8-8.5-4.8-11.4-2.1-1.9-1.5-1.3-1.5-1.3-.6-.5-1.3-.9-1.9-1.3.7-.4 1.3-.8 1.9-1.3 0 0-.5.5 1.5-1.3zM31 46v12H7V46c0-4.4 2.4-8.4 6.2-10.5l5.8-3.2 5.8 3.2C28.6 37.6 31 41.6 31 46zm-6.2-17.5L19 31.7l-5.8-3.2C9.4 26.4 7 22.4 7 18V6h24v12c0 4.4-2.4 8.4-6.2 10.5z" fill="#343434"/></svg>
